svg/u1f5e3.svg

<svg viewBox="0 0 128 128" xmlns="http://www.w3.org/2000/svg">
  <path d="M76.38,106.44c2.27-1.75,9.1-1.99,12-2.4c1.82-0.26,5.09-0.53,6.49-2.05 c2.55-2.76,2.72-5.42,2.44-7.77c-0.3-2.45-0.8-4.81,0.12-6.29c0.47-0.75,2.45-4.53,0.08-5.46c-1.26-0.5-2.08-0.05-7.33,0.13 c-2.44,0.08-4.3-0.85-3.5-2.17c0.89-1.01,4.7-1.44,8.28-2.76c2.53-0.93,3.86-1.5,4.15-3.68c0.18-1.32-0.78-2.1-1.27-3.74 c-0.45-1.49-0.02-2.17,0.59-2.77c0.93-0.91,3.39-2.38,3.72-5.06c0.55-4.58-7.09-6.94-9.6-11.69c-1.2-2.27-0.18-8.44-0.18-10.45 c0-8.14-4.07-21.78-16.93-29.57c-11.56-7-26.06-7.78-39.18-4.5c-6.27,1.57-12.63,5.81-16.76,9.52 c-9.87,8.86-12.1,21.92-12.82,26.6C4.4,57.05,8.38,68.31,14.09,77.35c8.25,13.07,20.12,21.5,21.94,29.01 c0.28,1.17,0.5,3.61,0.5,5.71c0,4.49-0.25,8.21-0.51,10.93h37.91C73.86,116.72,73.74,108.49,76.38,106.44z" fill="#1976D2"/>
  <path d="M104.8,71.35c-0.71,0-1.42-0.35-1.84-0.99c-0.67-1.01-0.39-2.38,0.62-3.05l15.14-9.99 c1.01-0.67,2.38-0.39,3.05,0.62c0.67,1.01,0.39,2.38-0.62,3.05l-15.14,9.99C105.64,71.23,105.22,71.35,104.8,71.35z" fill="#B0BEC5"/>
  <path d="M119.94,98.35c-0.42,0-0.84-0.12-1.21-0.36l-15.14-9.99c-1.02-0.67-1.29-2.04-0.62-3.05 c0.67-1.02,2.04-1.29,3.05-0.62l15.14,9.99c1.02,0.67,1.29,2.04,0.62,3.05C121.35,98,120.65,98.35,119.94,98.35z" fill="#B0BEC5"/>
  <path d="M105.29,79.38c-1.2,0-2.18-0.96-2.2-2.16c-0.02-1.22,0.95-2.22,2.16-2.24l18.13-0.32 c1.22-0.01,2.22,0.95,2.24,2.16s-0.95,2.22-2.16,2.24l-18.13,0.32C105.32,79.38,105.3,79.38,105.29,79.38z" fill="#B0BEC5"/>
</svg>

<svg viewBox="0 0 128 128" xmlns="http://www.w3.org/2000/svg">
  <defs/>
  <path d="M76.38,106.44 C78.65,104.69 85.48,104.45 88.38,104.04 C90.2,103.78 93.47,103.51 94.87,101.99 C97.42,99.23 97.59,96.57 97.31,94.22 C97.01,91.77 96.51,89.41 97.43,87.93 C97.9,87.18 99.88,83.4 97.51,82.47 C96.25,81.97 95.43,82.42 90.18,82.6 C87.74,82.68 85.88,81.75 86.68,80.43 C87.57,79.42 91.38,78.99 94.96,77.67 C97.49,76.74 98.82,76.17 99.11,73.99 C99.29,72.67 98.33,71.89 97.84,70.25 C97.39,68.76 97.82,68.08 98.43,67.48 C99.36,66.57 101.82,65.1 102.15,62.42 C102.7,57.84 95.06,55.48 92.55,50.73 C91.35,48.46 92.37,42.29 92.37,40.28 C92.37,32.14 88.3,18.5 75.44,10.71 C63.88,3.71 49.38,2.93 36.26,6.21 C29.99,7.78 23.63,12.02 19.5,15.73 C9.63,24.59 7.4,37.65 6.68,42.33 C4.4,57.05 8.38,68.31 14.09,77.35 C22.34,90.42 34.21,98.85 36.03,106.36 C36.31,107.53 36.53,109.97 36.53,112.07 C36.53,116.56 36.28,120.28 36.02,123 L73.93,123 C73.86,116.72 73.74,108.49 76.38,106.44 Z" fill="#1976D2"/>
  <path d="M104.8,71.35 C104.09,71.35 103.38,71 102.96,70.36 C102.29,69.35 102.57,67.98 103.58,67.31 L118.72,57.32 C119.73,56.65 121.1,56.93 121.77,57.94 C122.44,58.95 122.16,60.32 121.15,60.99 L106.01,70.98 C105.64,71.23 105.22,71.35 104.8,71.35 Z" fill="#B0BEC5"/>
  <path d="M119.94,98.35 C119.52,98.35 119.1,98.23 118.73,97.99 L103.59,88 C102.57,87.33 102.3,85.96 102.97,84.95 C103.64,83.93 105.01,83.66 106.02,84.33 L121.16,94.32 C122.18,94.99 122.45,96.36 121.78,97.37 C121.35,98 120.65,98.35 119.94,98.35 Z" fill="#B0BEC5"/>
  <path d="M105.29,79.38 C104.09,79.38 103.11,78.42 103.09,77.22 C103.07,76 104.04,75 105.25,74.98 L123.38,74.66 C124.6,74.65 125.6,75.61 125.62,76.82 C125.64,78.03 124.67,79.04 123.46,79.06 L105.33,79.38 C105.32,79.38 105.3,79.38 105.29,79.38 Z" fill="#B0BEC5"/>
</svg>
